prototype_2/assets/icons/game_actors/icon_crafting_tool.svg

<svg xmlns="http://www.w3.org/2000/svg" viewBox="0 0 512 512" style="height: 512px; width: 512px;"><g class="" transform="translate(0,0)" style="touch-action: none;"><path d="M352.75 39.47l-33.094 83.374 111.156 111.28 58.22-58.28L352.75 39.47zm-160.344 5.218c-98.25 66.974-166.87 161.246-169.47 288.906 62.25-119.817 162.457-225.092 255.22-269.75l-85.75-19.157zM97.75 60.156L68.187 89.72c7.276 6.96 14.53 13.893 21.813 20.843 8.887-10.39 18.37-20.35 28.313-29.907l-20.563-20.5zm353.813 0L425.688 86l28.718 28.75c8.91-8.36 17.822-16.728 26.72-25.094l-29.563-29.5zm-263.938 89.75c-9.44 8.552-18.824 17.596-28.063 27.063 25.263 24.13 50.526 48.323 75.688 72.75l26.188-26.126-73.813-73.688zm153.313 20.72L68 443.155l29.313 29.22c83.48-96.13 175.757-186.498 269.812-275.532l-26.188-26.22zm-28.25 104.155c-8.692 8.42-17.35 16.853-25.97 25.314 55.896 55.38 111.166 112.353 165.157 172.437l29.438-29.374L312.688 274.78z" fill="#fff" fill-opacity="1"></path></g></svg>

<?xml version="1.0" encoding="UTF-8" standalone="no"?>
<!DOCTYPE svg PUBLIC "-//W3C//DTD SVG 1.1//EN" "http://www.w3.org/Graphics/SVG/1.1/DTD/svg11.dtd">
<svg width="100%" height="100%" viewBox="0 0 512 512" version="1.1" xmlns="http://www.w3.org/2000/svg" xmlns:xlink="http://www.w3.org/1999/xlink" xml:space="preserve" xmlns:serif="http://www.serif.com/" style="fill-rule:evenodd;clip-rule:evenodd;stroke-linejoin:round;stroke-miterlimit:2;">
    <g>
        <path d="M352.75,39.47L319.656,122.844L430.812,234.124L489.032,175.844L352.75,39.47ZM192.406,44.688C94.156,111.662 25.536,205.934 22.936,333.594C85.186,213.777 185.393,108.502 278.156,63.844L192.406,44.687L192.406,44.688ZM97.75,60.156L68.187,89.72C75.463,96.68 82.717,103.613 90,110.563C98.887,100.173 108.37,90.213 118.313,80.656L97.75,60.156ZM451.563,60.156L425.688,86L454.406,114.75C463.316,106.39 472.228,98.022 481.126,89.656L451.563,60.156ZM187.625,149.906C178.185,158.458 168.801,167.502 159.562,176.969C184.825,201.099 210.088,225.292 235.25,249.719L261.438,223.593L187.625,149.905L187.625,149.906ZM340.938,170.626L68,443.155L97.313,472.375C180.793,376.245 273.07,285.877 367.125,196.843L340.937,170.623L340.938,170.626ZM312.688,274.781C303.996,283.201 295.338,291.634 286.718,300.095C342.614,355.475 397.884,412.448 451.875,472.532L481.313,443.158L312.688,274.78L312.688,274.781Z" style="fill:rgb(165,183,243);fill-rule:nonzero;"/>
    </g>
</svg>
